X:1
T:In monte oliveti
T:Giovanni Croce
T:In monte oliveti
T:Copyright © 2016 by The Choral Public Domain Library. Edition may be freely distributed, duplicated, performed or recorded.
T:Copyright © 2016 by The Choral Public Domain Library. Edition may be freely distributed, duplicated, performed or recorded.
T:Copyright © 2016 by The Choral Public Domain Library. Edition may be freely distributed, duplicated, performed or recorded.
C:Giovanni Croce
Z:Copyright © 2016 by The Choral Public Domain Library. Edition may be freely distributed, duplicated, performed or recorded.
%%score [ 1 2 3 4 ]
L:1/8
Q:1/2=84
M:4/2
K:Eb
V:1 treble nm="Soprano Solo" snm="S. Solo"
V:2 treble nm="Alto Solo" snm="A. Solo"
V:3 treble-8 transpose=-12 nm="Tenor Solo" snm="T. Solo"
V:4 bass nm="Baritone Solo" snm="Bar. Solo"
V:1
 G8 G8- | G4 G4 G4 G4 | F8 =E4 G4 | A8 B4 B4 | c8 =B8 | z8 c8 | =B8 z8 | G8 =A4 A4 | =A8 A4 A4 | %9
w: In mon-|* te o- li-|ve- ti o-|ra- vit ad|Pa- trem,|Pa-|ter,|Pa- ter, si|fi- e- ri|
 B8 B4 B4- | B4 B4 B4 _A4 | G4 B8 A4 | G16 | G16 || A12 A4 | A4 G8 G4 | F12 F4 | =E8 z4 E4- | %18
w: po- test tran-|* se- at a|me ca- lix|i-|ste:|Spi- ri-|tus qui- dem|prom- ptus|est, ca-|
 E4 =E4 F8 | F4 G4 G8 | G16 | z4 B4 B4 F4 | A6 B2 c4 c4 | B8 A4 A4 | A4 A4 G8- | G4 F4 G8 | G16 |] %27
w: * ro au-|tem in fir-|ma.|Fi- at vo-|lun- * * tas|tu- a, fi-|at vo- lun-|* tas tu-|a.|
V:2
 E8 D8- | D4 D4 D4 C4 | C8 C4 =E4 | F6 F2 G4 G4- | G4 F4 G8 | z8 G8 | G8 z8 | =E8 F4 F4 | %8
w: In mon-|* te o- li-|ve- ti o-|ra- vit ad Pa-|* * trem,|Pa-|ter,|Pa- ter, si|
 F8 F4 F4 | G8 F4 F4- | F4 F4 F4 F4 | D4 G8 F2 E2 | D4 E4 D8 | =E16 || _E12 E4 | E4 E8 E4 | %16
w: fi- e- ri|po- test tran-|* se- at a|me ca- * *|* lix i-|ste:|Spi- ri-|tus qui- dem|
 C12 C4 | C8 z4 C4- | C4 C4 C8 | C4 E4 D8 | C8 z4 G4 | G4 G4 F4 D4 | F8 E2 D2 E2 F2 | G8 C4 C4 | %24
w: prom- ptus|est, ca-|* ro au-|tem in fir-|ma. Fi-|at vo- lun- tas|tu- * * * *|* a, fi-|
 F4 F4 B,8- | B,4 C4 D8 | =E16 |] %27
w: at vo- lun-|* tas tu-|a.|
V:3
 c8 =B8- | B4 =B4 B4 c4 | A8 G4 c4 | c8 e4 e4 | e4 d2 c2 d8 | z8 e8 | d8 z8 | c8 c4 c4 | c8 c4 c4 | %9
w: In mon-|* te o- li-|ve- ti o-|ra- vit ad|Pa- * * trem,|Pa-|ter,|Pa- ter, si|fi- e- ri|
 e8 d4 d4- | d4 d4 d4 c4 | B4 e8 c4 | =B4 c8 B4 | c16 || c12 c4 | c4 B8 B4 | A12 A4 | G8 z4 G4- | %18
w: po- test tran-|* se- at a|me ca- lix|i- * *|ste:|Spi- ri-|tus qui- dem|prom- ptus|est, ca-|
 G4 G4 A6 A2 | A4 c8 =B4 | c4 e4 e4 e4 | d4 B4 d8 | c8 z4 c4 | d4 e4 f6 ed | c4 d4 e8 | d4 c8 =B4 | %26
w: * ro au- tem|in- fir- *|ma. Fi- at vo-|lun- tas tu-|a, fi-|at vo- lun- * *||tas tu- *|
 c16 |] %27
w: a.|
V:4
 C,8 G,8- | G,4 G,4 G,4 =E,4 | F,8 C,4 C,4 | F,8 E,4 E,4 | A,8 G,8 | z8 C8 | G,8 z8 | C8 F,4 F,4 | %8
w: In mon-|* te o- li-|ve- ti o-|ra- vit ad|Pa- trem,|Pa-|ter,|Pa- ter, si|
 F,8 F,4 F,4 | E,8 B,4 B,4- | B,4 B,4 B,4 F,4 | G,4 E,8 F,4 | G,16 | C,16 || A,12 A,4 | %15
w: fi- e- ri|po- test tran-|* se- at a|me ca- lix|i-|ste:|Spi- ri-|
 A,4 E,8 E,4 | F,12 F,4 | C,8 z4 C,4- | C,4 C,4 F,8 | F,4 C,4 G,8 | C,4 C4 C4 C4 | B,4 G,4 B,8 | %22
w: tus qui- dem|prom- ptus|est, ca-|* ro au-|tem in fir-|ma. Fi- at vo-|lun- tas tu-|
 A,4 F,4 A,4 A,4 | G,8 F,4 F,4 | F,4 F,4 E,6 F,2 | G,4 A,4 G,8 | C,16 |] %27
w: a, vo- lun- tas|tu- a, fi-|at vo- lun- *|* tas tu-|a.|

